X: 40607
T: Tonder Jukebox, The
R: reel
M: 4/4
K: Amixolydian
BggB ga2f-|fd (3ddd edBA-|AccA deAc-|cAcd edcA|
BggB ga2f-|fd (3ddd edBA-|AccA deAc-|cAAA A2AA:|
|:Aceg- gefg|fd (3ddd edBA-|AccA deAc-|cAcd edcA|
Aceg- gefg|fd (3ddd edBA-|AccA deAc-|cAAA A2AA:|

